!!!CDT:
!!!PTL: Madrigali et Arie. Opera prima
!!!PPP: Venice
!!!PPR: Alessandro Vincenzi
!!!PDT: 1633
!!!PUB-format:
!!!RISM: Unknown 11
!!!AGN: Madrigal
!!!SCT: Tsg14062b
!!!SCA: Tsg14062b
!!!original-voices: 1+bc
!!!extant-voices: 1+bc
!!!complete: Y
!!!final: (G)G
!!!COM: Camarella, Giovanni Battista
!!!OTL: O giovinetti mentre aprile e maggio
**kern	**fb	**kern	**text
*part2	*part2	*part1	*part1
*staff2	*staff2	*staff1	*staff1
*I"[Basso continuo]	*	*I"[Canto]	*
*I'Bc	*	*I'C	*
*oclefF4	*	*oclefC1	*
*clefF4	*	*clefG2	*
*k[b-]	*	*k[b-]	*
*F:	*	*F:	*
*omet(C)	*	*omet(C)	*
*M4/4	*	*M4/4	*
=1	=1	=1	=1
!!LO:TX:a:t=Aria.
!!LO:TX:a:t=[Prima parte.]
1G	.	4r	.
.	.	2dd	O
.	.	8.b-y	gio-
.	.	16a	-vi-
=2	=2	=2	=2
1G	.	2b-y	-net-
.	.	2g	-ti,
=3	=3	=3	=3
1G	.	4r	.
.	.	8g	men-
.	.	8a	-tre a-
.	.	4.b-y	-pri-
.	.	8a	-le e
=4	=4	=4	=4
1F	.	2cc	mag-
.	.	[2cc	-gio
=5	=5	=5	=5
2F	.	8cc]	.
.	.	8cc	V'a-
.	.	8.cc	-man-
.	.	16a	-tan
2BB-y	.	4.dd	di
.	.	8ee	fio-
=6	=6	=6	=6
2BB-y	.	4ff	-ri-
.	.	16eeL	.
.	.	16dd	.
.	.	16cc	.
.	.	16b-yJ	.
2F	.	16aL	-te e
.	.	16b-y	.
.	.	16cc	.
.	.	16aJ	.
.	.	16b-yL	ver-
.	.	16a	.
.	.	16b-y	.
.	.	16ccJ	.
=7	=7	=7	=7
[1F	.	16ddL	.
.	.	16cc	.
.	.	16dd	.
.	.	16b-yJ	.
.	.	16ccL	.
.	.	16f	.
.	.	16g	.
.	.	16aJ	.
.	.	16b-yL	.
.	.	16f	.
.	.	16g	.
.	.	16aJ	.
.	.	16b-yL	.
.	.	16cc	.
.	.	16dd	.
.	.	16eeJ	.
=8	=8	=8	=8
4F]	.	2ff	.
4D	.	.	.
2E-X	.	16ee-XL	-di
.	.	16dd	.
.	.	16ee-i	.
.	.	16ccJ	.
.	.	16ddL	.
.	.	16cc	.
.	.	16dd	.
.	.	16b-yJ	.
=9	=9	=9	=9
1F	.	1cc	spo-
=10	=10	=10	=10
1BB-y	.	1b-y	-glie;
=11	=11	=11	=11
1F	.	4r	.
.	.	4a	Di
.	.	[8aL	glo-
.	.	16a]	.
.	.	16b-yJ	.
.	.	16ccL	.
.	.	16b-y	.
.	.	16a	.
.	.	16gJ	.
=12	=12	=12	=12
[1F	.	16fL	.
.	.	16e	.
.	.	16d	.
.	.	16eJ	.
.	.	16fL	.
.	.	16e	.
.	.	16f	.
.	.	16gJ	.
.	.	16fL	.
.	.	16c	.
.	.	16d	.
.	.	16eJ	.
.	.	16fL	.
.	.	16e	.
.	.	16f	.
.	.	16gJ	.
=13	=13	=13	=13
1F_	.	16aL	.
.	.	16e	.
.	.	16f	.
.	.	16gJ	.
.	.	16aL	.
.	.	16g	.
.	.	16a	.
.	.	16b-yJ	.
.	.	8ccL	.
.	.	16b-y	.
.	.	16b-yJ	.
.	.	16b-yL	.
.	.	16b-y	.
.	.	16a	.
.	.	16gJ	.
=14	=14	=14	=14
1F_	.	16aL	.
.	.	16a	.
.	.	16a	.
.	.	16aJ	.
.	.	16aL	.
.	.	16a	.
.	.	16g	.
.	.	16fJ	.
.	.	16gL	.
.	.	16g	.
.	.	16g	.
.	.	16gJ	.
.	.	16gL	.
.	.	16g	.
.	.	16f	.
.	.	16eJ	.
=15	=15	=15	=15
1F]	.	4f	.
.	.	[4f	-ria
.	.	8f]	.
.	.	8f	e
.	.	8f	di
.	.	8f	vir-
=16	=16	=16	=16
1F	.	4.f	-tù
.	.	8f	fal-
.	.	4.f	-la-
.	.	8e	-ce
=17	=17	=17	=17
1C	.	16eL	rag-
.	.	16f	.
.	.	16g	.
.	.	16aJ	.
.	.	16b-yL	.
.	.	16cc	.
.	.	16dd	.
.	.	16eeJ	.
.	.	2g	-gio
=18	=18	=18	=18
1C	.	4g	La
.	.	8g	ten-
.	.	8g	-ne-
.	.	4g	-rel-
.	.	16aL	-la
.	.	16b-y	.
.	.	16cc	.
.	.	16aJ	.
=19	=19	=19	=19
1G	.	2b-y	men-
.	.	2b-y	-tre, ah,
=20	=20	=20	=20
2.G	.	16gL	.
.	.	16f	.
.	.	16g	.
.	.	16aJ	.
.	.	16b-yL	.
.	.	16a	.
.	.	16b-y	.
.	.	16ccJ	.
.	.	[4dd	.
4D	.	8dd]L	.
.	.	16ee	.
.	.	16ffJ	.
=21	=21	=21	=21
4C	-	2.ee-X	.
4D	.	.	.
4E-X	.	.	.
4C	.	8b-y	non
.	.	8a	v'in-
=22	=22	=22	=22
1D	#	1a	-vo-
=23	=23	=23	=23
1GGl	.	1gl	-glie.
=24||	=24||	=24||	=24||
!!LO:TX:a:t=[Seconda parte.]
2G	.	1r	.
2BBnX	.	.	.
=25	=25	=25	=25
2C	.	1r	.
2D	.	.	.
=26	=26	=26	=26
[1G	.	8.ddL	So-
.	.	16eeJ	.
.	.	8.ddL	.
.	.	16eeJ	.
.	.	4ff	.
.	.	8.dd	-lo
.	.	16cc	che
=27	=27	=27	=27
1G]	.	8.cc	se-
.	.	16b-y	-gue
.	.	8.b-y	ciò
.	.	16a	che
.	.	4.a	pia-
.	.	8g	-ce è
=28	=28	=28	=28
[1G	.	16gL	sag-
.	.	16a	.
.	.	16g	.
.	.	16aJ	.
.	.	16b-yL	.
.	.	16cc	.
.	.	16dd	.
.	.	16aJ	.
.	.	8b-yL	.
.	.	[16a	.
.	.	16a]J	.
.	.	16aL	.
.	.	16a	.
.	.	16g	.
.	.	16fJ	.
=29	=29	=29	=29
1G]	.	8gL	.
.	.	16a	.
.	.	16b-yJ	.
.	.	16aL	.
.	.	16b-y	.
.	.	16cc	.
.	.	16gJ	.
.	.	8ccL	.
.	.	16b-y	.
.	.	16aJ	.
.	.	16aL	.
.	.	16a	.
.	.	16a	.
.	.	16gJ	.
=30	=30	=30	=30
[1D	.	2a	-gio,
.	.	4a	E in
.	.	8.a	sua
.	.	16g	sta-
=31	=31	=31	=31
2D]	.	8.g	-gion
.	.	16f	de
.	.	8.f	gli an-
.	.	16e	-ni il
[2AA	.	[2e	frut-
=32	=32	=32	=32
4AA]	.	4e]	.
4GG	.	4e	-to
2AA	#	2e	co-
=33	=33	=33	=33
1D	.	1d	-glie;
=34	=34	=34	=34
4D	.	2r	.
4E	.	.	.
2F	.	4r	.
.	.	8cc	Que-
.	.	8a	-sto
=35	=35	=35	=35
1BB-y	.	2dd	cri-
.	.	16ffL	-da
.	.	16ee	.
.	.	16dd	.
.	.	16ccJ	.
.	.	16b-yL	.
.	.	16f	.
.	.	16g	.
.	.	16aJ	.
=36	=36	=36	=36
2BB-y	.	16b-yL	.
.	.	16cc	.
.	.	16dd	.
.	.	16eeJ	.
.	.	2ff	.
4D	.	.	.
4E-X	.	(>8ee-XL	na-
.	.	8dd)J	.
=37	=37	=37	=37
1F	.	1cc	-tu-
=38	=38	=38	=38
1BB-y	.	1b-y	-ra,
=39	=39	=39	=39
2.BB-y	.	4r	.
.	.	(>8b-yL	ah,
.	.	8cc)J	.
.	.	2dd)	.
4C	.	.	.
=40	=40	=40	=40
1D	.	2f#X	fol-
.	.	4f#i	-le hor
.	.	4g	vo-
=41	=41	=41	=41
1D	.	2a	-i
.	.	4a	In-
.	.	8a	-du-
.	.	8a	-ra-
=42	=42	=42	=42
1D	.	8b-y	-re-
.	.	8cc	-te
.	.	2dd	l'al-
.	.	8ccL	.
.	.	8ddJ	.
=43	=43	=43	=43
2C	.	2ee-X	.
4D	.	2dd	-ma i
4E	.	.	.
=44	=44	=44	=44
2F	.	2cc	det-
4G	.	(>8b-yL	.
.	.	8a)J	.
4C	.	(>8ccL	-ti
.	.	8b-y)J	.
=45	=45	=45	=45
1D	.	1a	suo-
=46	=46	=46	=46
1GG	.	1g	-i.
=47	=47	=47	=47
2G	.	1r	.
2BBnXi	.	.	.
=48	=48	=48	=48
2C#X	.	1r	.
2D	.	.	.
=49	=49	=49	=49
1G	.	(>8.ddL	Fol-
.	.	16ee)J	.
.	.	4ff)	.
.	.	2dd	-li,
=50	=50	=50	=50
[1G	-	4ee-X	per-
.	.	8ee-i	-ché
.	.	8ee-i	get-
.	.	16ee-iL	-ta-
.	.	16ee-i	.
.	.	16ee-i	.
.	.	16ee-iJ	.
.	.	16ee-iL	.
.	.	16ee-i	.
.	.	16dd	.
.	.	16ccJ	.
=51	=51	=51	=51
1G]	.	4b-y	.
.	.	4a	-te il
.	.	4.a	ca-
.	.	8enXi	-ro
=52	=52	=52	=52
1D	#	2f	do-
.	.	2f#X	-no,
=53	=53	=53	=53
2.D	.	8r	.
.	.	8a	Che
.	.	8b-y	bre-
.	.	8a	-ve è
.	.	[2dd	sì,
4E	.	.	.
=54	=54	=54	=54
4F	.	8dd]	.
.	.	8b-y	di
4A	.	8cc	vo-
.	.	8cc	-stra e-
2G	.	4.cc	-tà
.	.	8b-y	no-
=55	=55	=55	=55
1C	.	2cc	-vel-
.	.	2cc	-la?
=56	=56	=56	=56
[1C	.	2r	.
.	.	4e	No-
.	.	4e	-me
=57	=57	=57	=57
1C_	.	4e	sen-
.	.	8e	-za
.	.	8e	sog-
.	.	16eL	-get-
.	.	16fJ	.
.	.	(<4g	.
.	.	8g)	.
=58	=58	=58	=58
1C]	.	2e	-to,
.	.	4g	i-
.	.	8.g	-do-
.	.	16f	-lo
=59	=59	=59	=59
1F	.	4a	so-
.	.	4a	-no
.	.	4r	.
.	.	8a	Ciò
.	.	8b-y	che
=60	=60	=60	=60
2.F	.	4cc	pre-
.	.	8.cc	-gio e
.	.	16b-y	va-
.	.	4cc	-lor
4F#X	.	16ddL	il
.	.	16cc	.
.	.	16b-y	.
.	.	16aJ	.
=61	=61	=61	=61
4G	.	16b-yL	mon-
.	.	16a	.
.	.	16g	.
.	.	16fJ	.
4A	.	2e	.
4B-y	.	.	.
4G	.	4e	-do a-
=62	=62	=62	=62
1A	#	1e	-spet-
=63	=63	=63	=63
1D	#	1d	-ta.
=64	=64	=64	=64
2D	.	1r	.
2E	.	.	.
=65	=65	=65	=65
1F	.	4r	.
.	.	4f	La
.	.	[4f	fa-
.	.	16f]L	.
.	.	16c	.
.	.	16d	.
.	.	16eJ	.
=66	=66	=66	=66
1F	.	16fL	.
.	.	16c	.
.	.	16d	.
.	.	16eJ	.
.	.	16fL	.
.	.	16g	.
.	.	16a	.
.	.	16b-yJ	.
.	.	16ccL	.
.	.	16c	.
.	.	16d	.
.	.	16eJ	.
.	.	16fL	.
.	.	32g	.
.	.	32a	.
.	.	32b-y	.
.	.	32cc	.
.	.	32dd	.
.	.	32eeJ	.
=67	=67	=67	=67
[1F	.	4ff	.
.	.	4f	-ma
.	.	4r	.
.	.	8f	che+in-
.	.	8f	-va-
=68	=68	=68	=68
2F]	.	8.a	-ghi-
.	.	16g	-sce un
.	.	8.f	dol-
.	.	16e	-ce
2C	.	(<8eL	suo-
.	.	16e)	.
.	.	16fJ	.
.	.	16eL	.
.	.	16f	.
.	.	8gJ	.
=69	=69	=69	=69
1C	.	2e	-no
.	.	4.cc	Voi
.	.	8g	su-
=70	=70	=70	=70
2C	.	4g	-per-
.	.	8.g	-bi
.	.	16f	mor-
2F	.	4a	-ta-
.	.	4a	-li,
=71	=71	=71	=71
2BB-y	.	8r	.
.	.	8dd	e
.	.	8cc	par
.	.	8dd	sì
2E-X	.	(<8gL	bel-
.	.	16g)	.
.	.	16aJ	.
.	.	16b-yL	.
.	.	16cc	.
.	.	16b-y	.
.	.	16ccJ	.
=72	=72	=72	=72
2D	#	(<8f#XL	.
.	.	16f#i)	.
.	.	16gJ	.
.	.	16aL	.
.	.	16b-y	.
.	.	16a	.
.	.	16b-yJ	.
2C	.	(<8eL	.
.	.	16e)	.
.	.	16f#iJ	.
.	.	16gL	.
.	.	16a	.
.	.	16g	.
.	.	16aJ	.
=73	=73	=73	=73
2BB-y	.	16dL	.
.	.	16e	.
.	.	16fnXi	.
.	.	16eJ	.
.	.	16gL	.
.	.	32f	.
.	.	32e	.
.	.	32e	.
.	.	32e	.
.	.	16dJ	.
2AA	#	2e	-la,
=74	=74	=74	=74
[1AA	.	4r	.
.	.	4e	È un
.	.	8eL	ec-
.	.	16f	.
.	.	16gJ	.
.	.	8a	.
.	.	8a	-co,
=75	=75	=75	=75
!	!	!O:TX:t=piano	!
2AA]	.	8eL	ec-
.	.	16f	.
.	.	16gJ	.
.	.	8a	.
.	.	8a	-co,
2FF	.	4r	.
.	.	4a	un
=76	=76	=76	=76
2C	.	16gL	so-
.	.	16f	.
.	.	16e	.
.	.	16dJ	.
.	.	8c	.
.	.	8c	-gno,
2C	.	16g	so-
!	!	!LO:TX:t=piano	!
.	.	16f	.
.	.	16e	.
.	.	16d	.
.	.	8cLJJ	.
.	.	8c	-gno,
=77	=77	=77	=77
2C	.	8e	an-
.	.	16e	-zi
.	.	16f	del
.	.	8.g	so-
.	.	16f	-gn'u-
2F	.	4a	-n'om-
.	.	4a	-bra,
=78	=78	=78	=78
!	!	!LO:TX:t=piano	!
[1F	.	4a	om-
.	.	4a	-bra
.	.	8r	.
.	.	8a	Ch'ad
.	.	8a	o-
.	.	8a	-gni
=79	=79	=79	=79
1F_	.	(<8aL	ven-
.	.	16a)	.
.	.	16b-yJ	.
.	.	16ccL	.
.	.	16b-y	.
.	.	16a	.
.	.	16gJ	.
.	.	16fL	.
.	.	16g	.
.	.	16a	.
.	.	16gJ	.
.	.	16fL	.
.	.	16e	.
.	.	16d	.
.	.	16eJ	.
=80	=80	=80	=80
1F_	.	8fL	.
.	.	16g	.
.	.	16aJ	.
.	.	16b-yL	.
.	.	16cc	.
.	.	16dd	.
.	.	16eeJ	.
.	.	4ff	.
.	.	4ff	-to,
=81	=81	=81	=81
!	!	!O:TX:t=piano	!
1F]	.	8fL	ven-
.	.	16g	.
.	.	16aJ	.
.	.	16b-yL	.
.	.	16cc	.
.	.	16dd	.
.	.	16eeJ	.
.	.	4ff	.
.	.	4ff	-to
=82	=82	=82	=82
2.BB-y	.	4r	.
.	.	8b-y	Si
.	.	8cc	di-
.	.	[2dd	-le-
4C	.	.	.
=83	=83	=83	=83
1D	#	2dd]	.
.	.	2f#X	-gua e
=84	=84	=84	=84
(>1E-X	.	16gL	sgom-
.	.	16fnXi	.
.	.	16g	.
.	.	16aJ	.
.	.	16gL	.
.	.	16a	.
.	.	16b-y	.
.	.	16aJ	.
.	.	16b-yL	.
.	.	16cc	.
.	.	16a	.
.	.	16b-yJ	.
.	.	16gL	.
.	.	16a	.
.	.	16b-y	.
.	.	16gJ	.
=85	=85	=85	=85
2D)	.	16aL	.
.	.	16g	.
.	.	16f	.
.	.	16eJ	.
.	.	16fL	.
.	.	16d	.
.	.	16e	.
.	.	16fJ	.
2C	.	[2g	.
=86	=86	=86	=86
1D	4:#3	2g]	.
.	.	2f#X	.
=87	=87	=87	=87
1GGl	.	1gl	-bra.
==	==	==	==
*-	*-	*-	*-
!!!system-decoration: [*]
!!!RDF**kern: > = above
!!!RDF**kern: < = below
!!!RDF**kern: i = editorial accidental
!!!RDF**kern: l = terminal long
!!!ENC: Emiliano Ricciardi
!!!END: 2019/08/08
!!!EED: Ricciardi, Emiliano
!!!EEV: 2019/08/08
!!!YEC: Copyright 2018 Emiliano Ricciardi, All Rights Reserved
!!!ONB: Translated from MusicXML on 2019/08/08 and edited by Craig Stuart Sapp
!!@@BEGIN:	VERSEDATA
!!@CATALOGNUM:	Tsg14062
!!@LAST_MODIFIED: 2020/07/12
!!@TITLE:		O giovinetti, mentre Aprile e Maggio
!!@CANTO:		XIV
!!@OTTAVA:	62
!!@MANUSRC:	G-Al, G-Au, G-Br<sub>1</sub>, G-Br<sub>2</sub>, G-Es<sub>1</sub>, G-Es<sub>2</sub>, G-Es<sub>3</sub>, G-F, G-Fr, G-Fr<sub>1</sub>, G-Fr<sub>2</sub>, G-Mc<sub>1</sub>, G-Mg, G-Mr, G-Mt, G-N
!!@PRINTSRC:	G-1580CM, G-1581B, G-1581CV, G-1581R, G-1581MR, G-1581P, G-1581V, G-1581V<sub>bis</sub>, G-1582C, G-1582M, G-1582MC, G-1582P, G-1582SC, G-1582SC<sub>bis</sub>, G-1583S, G-1584O, G-1584S, G-1585C, G-1585S, G-1588S, G-1589S, G-1590B, G-1590S, G-1592S, G-1593S, G-1594C, G-1595C, G-1597C, G-1598C, G-1599C, G-1600C, G-1600S, G-1601C, G-1601R, G-1602C, G-1604C, G-1604Cl, G-1604F, G-1604P, G-1606B, G-1606B<sub>bis</sub>, G-1606L, G-1607ZR, G-1608DP, G-1609GC, G-1610M, G-1611S, G-1611V, G-1612P, G-1613M, G-1613P, G-1613V, G-1615P, G-1616M, G-1617P, G-1619B, G-1619V, G-1620M, G-1620S, G-1621R, G-1624I, G-1624MT, G-1625C, G-1625S, G-1625SS, G-1626C, G-1626Co, G-1627M, G-1628T, G-1628Tu, G-1630L, G-1630T, G-1632FT, G-1639CF, G-1642M, G-1643I, G-1644P, G-1644S
!!@@BEGIN:	VERSES
!!@ABOUTIT:
!!@ABOUTEN:
!!@EDITOR:	Angelo Solerti
!!@EDITION_TITLE: Gerusalemme liberata. Poema eroico di Torquato Tasso. Edizione critica sui manoscritti e le prime stampe.
!!@EDITION_LOC:	Florence
!!@EDITION_PUB:	G. Barbera
!!@EDITION_DATE:  1895
!!@EDITION_VOL:
!!@EDITION_PAGE:
!!@TRANSLATOR:	Emiliano Ricciardi and Amyrose McCue Gill
!!@VERSE:
!!	O giovinetti, mentre Aprile e Maggio
!!	V’ammantan di fiorite e verdi spoglie;
!!	Di gloria e di virtù fallace raggio
!!	La tenerella mente ah non v’invoglie.
!!	Solo chi segue ciò che piace è saggio,
!!	E in sua stagion degli anni il frutto coglie;
!!	Questo grida natura: or dunque voi
!!	Indurerete l’alma ai detti suoi?
!!@TVERSE:
!!	O youths, while April and May
!!	Clothe you in flowered and green dress;
!!	The false ray of glory and of virtue,
!!	Youthful mind, ah, do not be tempted by it.
!!	Only he who follows that which is pleasing is wise,
!!	And in his season of years gathers the fruit;
!!	This nature proclaims: Now therefore will you
!!	Harden your soul to his words?
!!@@END:		VERSES
!!@OTHER_CRIT_ED:  Torquato Tasso, <i>Gerusalemme liberata</i>, ed. Lanfranco Caretti, 2 vols. (Bari: Laterza, 1967).
!!@ATTRIBUTION_ABOUT:
!!@DATING:	mid-1560s through 1570s
!!@DEDICATEE:	Duke Alfonso II d'Este
!!@COMMENTARY:
!!@@END:		VERSEDATA
!!@@BEGIN: SETTING
!!@CATALOGNUM:	Tsg14062b
!!@CANTO:		XIV
!!@OTTAVA:	62
!!@TITLE:	O giovinetti mentre aprile e maggio
!!@COMPOSER:	Camarella, Giovanni Battista
!!@PARTS:		1 of 1?
!!@PRINCEPSTITLE:	Madrigali et Arie. Opera prima
!!@PRINCEPSLOC:	Venice
!!@NORMLOC:	Venice
!!@NORMPUB:	Alessandro Vincenzi
!!@NORMPUBSHORT:	A. Vincenzi
!!@PRINCEPSPUB:	Alessandro Vincenti
!!@PRINCEPSYEAR:	1633
!!@PRINCEPSRISM:	Unknown 11
!!@OVOICES:	1+bc
!!@EXTANTVOICES:	1+bc
!!@OMENSURATION:	C
!!@OCLEFS:	C1,F4
!!@OTIME:		
!!@OKEYSIG:	b-
!!@FINAL:	(G)G
!!@TIMPEDITOR:	Ricciardi, Emiliano
!!@REPRINTS:
!!@YOUTUBE:	G41-uem89WU
!!@YOUTUBESTART:	15
!!@YOUTUBEEND:	352
!!@@END: SETTING
